icons/ThumbsUp.svg

<svg width="24" height="24" viewBox="0 0 24 24" fill="none" xmlns="http://www.w3.org/2000/svg">
<path fill-rule="evenodd" clip-rule="evenodd" d="M4.873 19.626V10.554C4.87564 10.3627 4.84057 10.1727 4.76978 9.99489C4.69899 9.8171 4.59388 9.655 4.46044 9.51785C4.327 9.38069 4.16784 9.27117 3.99207 9.19552C3.81629 9.11988 3.62734 9.07961 3.436 9.077C3.04983 9.08279 2.68173 9.24157 2.41251 9.51849C2.14328 9.7954 1.99492 10.1678 2 10.554V19.625C1.99466 20.0114 2.14289 20.384 2.41215 20.6612C2.6814 20.9383 3.04965 21.0972 3.436 21.103C3.62734 21.1003 3.81627 21.0599 3.992 20.9841C4.16772 20.9083 4.3268 20.7987 4.46015 20.6614C4.5935 20.5242 4.6985 20.362 4.76917 20.1842C4.83984 20.0064 4.87478 19.8163 4.872 19.625L4.873 19.626ZM8.35 19.008C10.027 19.736 15.16 20.495 16.134 20.094C16.649 19.612 17.943 16.583 18.847 14.009C18.9094 13.8282 19.0278 13.672 19.185 13.563C19.916 13.063 20.294 12.481 20.223 11.978C20.1675 11.7508 20.0493 11.5437 19.8819 11.3803C19.7145 11.2169 19.5045 11.1039 19.276 11.054C18.166 10.694 15.444 10.074 15.417 10.068C15.2634 10.0319 15.1221 9.95585 15.0074 9.84748C14.8927 9.73911 14.8087 9.60232 14.764 9.451C14.718 9.29798 14.7122 9.13567 14.7472 8.97976C14.7823 8.82386 14.8569 8.67962 14.964 8.561C16.945 6.36 17.3 4.091 16.913 3.191C16.795 2.913 16.672 2.913 16.607 2.913C16.171 2.913 15.968 3.226 15.518 4.59C14.991 6.185 13.172 8.09 10.991 9.326C10.0728 9.86296 9.1906 10.4592 8.35 11.111V19.008ZM15.024 22C12.296 22 8.013 21.066 6.953 20.289C6.83739 20.2032 6.74358 20.0915 6.67913 19.9627C6.61468 19.834 6.58141 19.692 6.582 19.548V10.661C6.58161 10.5247 6.61157 10.39 6.66968 10.2666C6.72779 10.1433 6.81262 10.0345 6.918 9.948C7.93548 9.13194 9.01099 8.39098 10.136 7.731C11.738 6.91509 13.037 5.60805 13.843 4.001C14.249 2.773 14.8 1.091 16.607 1.091C17.0299 1.09431 17.4416 1.22751 17.7862 1.47256C18.1309 1.7176 18.392 2.06266 18.534 2.461C19.282 4.226 18.494 6.678 17.18 8.616C18.065 8.831 19.163 9.109 19.807 9.316C20.3595 9.46747 20.8571 9.77397 21.2409 10.1993C21.6248 10.6246 21.8788 11.1509 21.973 11.716C22.0233 12.3365 21.9051 12.959 21.6309 13.5179C21.3567 14.0767 20.9366 14.5512 20.415 14.891C19.568 17.275 18.088 21.054 17.015 21.672C16.3862 21.9321 15.7059 22.0433 15.027 21.997L15.024 22Z" fill="black"/>
</svg>

<svg xmlns="http://www.w3.org/2000/svg" viewBox="0 0 24 24">
  <path d="M4.873 19.626v-9.072a1.457 1.457 0 00-1.437-1.477A1.458 1.458 0 002 10.554v9.071a1.458 1.458 0 001.436 1.478 1.456 1.456 0 001.436-1.478l.001.001zm3.477-.618c1.677.728 6.81 1.487 7.784 1.086.515-.482 1.809-3.511 2.713-6.085a.9.9 0 01.338-.446c.731-.5 1.109-1.082 1.038-1.585a1.25 1.25 0 00-.947-.924c-1.11-.36-3.832-.98-3.859-.986a.894.894 0 01-.653-.617.93.93 0 01.2-.89c1.981-2.201 2.336-4.47 1.949-5.37-.118-.278-.241-.278-.306-.278-.436 0-.639.313-1.089 1.677-.527 1.595-2.346 3.5-4.527 4.736-.918.537-1.8 1.133-2.641 1.785v7.897zM15.024 22c-2.728 0-7.011-.934-8.071-1.711a.918.918 0 01-.371-.741v-8.887a.92.92 0 01.336-.713 26.892 26.892 0 013.218-2.217 8.424 8.424 0 003.707-3.73c.406-1.228.957-2.91 2.764-2.91a2.063 2.063 0 011.927 1.37c.748 1.765-.04 4.217-1.354 6.155.885.215 1.983.493 2.627.7a3 3 0 012.166 2.4 3.457 3.457 0 01-1.558 3.175c-.847 2.384-2.327 6.163-3.4 6.781-.629.26-1.31.371-1.988.325l-.003.003z"/>
</svg>
